Catalina-light/actions/22/window-next.svg

<?xml version="1.0" encoding="UTF-8" standalone="no"?>
<svg
   xmlns:dc="http://purl.org/dc/elements/1.1/"
   xmlns:cc="http://creativecommons.org/ns#"
   xmlns:rdf="http://www.w3.org/1999/02/22-rdf-syntax-ns#"
   xmlns:svg="http://www.w3.org/2000/svg"
   xmlns="http://www.w3.org/2000/svg"
   xmlns:sodipodi="http://sodipodi.sourceforge.net/DTD/sodipodi-0.dtd"
   xmlns:inkscape="http://www.inkscape.org/namespaces/inkscape"
   viewBox="0 0 22 22"
   id="svg2"
   version="1.1"
   inkscape:version="0.91 r13725"
   sodipodi:docname="window-next.svg">
  <metadata
     id="metadata10">
    <rdf:RDF>
      <cc:Work
         rdf:about="">
        <dc:format>image/svg+xml</dc:format>
        <dc:type
           rdf:resource="http://purl.org/dc/dcmitype/StillImage" />
      </cc:Work>
    </rdf:RDF>
  </metadata>
  <sodipodi:namedview
     pagecolor="#ffffff"
     bordercolor="#666666"
     borderopacity="1"
     objecttolerance="10"
     gridtolerance="10"
     guidetolerance="10"
     inkscape:pageopacity="0"
     inkscape:pageshadow="2"
     inkscape:window-width="640"
     inkscape:window-height="480"
     id="namedview8"
     showgrid="false"
     inkscape:zoom="28.954545"
     inkscape:cx="4.8524333"
     inkscape:cy="11"
     inkscape:current-layer="svg2" />
  <defs
     id="defs3051">
    <style
       type="text/css"
       id="current-color-scheme">
      .ColorScheme-Text {
        color:#4d4d4d
      }
      </style>
  </defs>
  <path
     style="color:#4d4d4d;fill:currentColor;fill-opacity:1;stroke:none"
     class="ColorScheme-Text"
     d="M 3.5674267,4.2000013 C 3.2526602,4.2000013 3,4.4694454 3,4.8031292 L 3,16.396878 C 3,16.730562 3.2526602,17 3.5674267,17 L 18.432574,17 C 18.747345,17 19,16.730562 19,16.396878 L 19,4.8031292 C 19,4.4694454 18.747345,4.2000013 18.432574,4.2000013 l -14.8651473,0 z m 6.0795876,3.2000013 c 0.1369274,0 0.2727667,0.055208 0.3772997,0.1656256 l 2.710392,2.5984358 c 0.112917,0.11961 0.162603,0.279572 0.15328,0.435939 0.0093,0.156645 -0.04032,0.316319 -0.15328,0.435939 l -2.710392,2.598436 c -0.2090605,0.221114 -0.5470109,0.221114 -0.7560766,0 -0.2090656,-0.221108 -0.2090656,-0.578893 0,-0.800001 L 11.596904,10.600003 9.2682374,8.36563 c -0.2090656,-0.221114 -0.2090656,-0.5791546 0,-0.8000018 C 9.3727702,7.4552074 9.5100923,7.4000026 9.6470143,7.4000026 Z"
     id="path6"
     inkscape:connector-curvature="0" />
</svg>

<svg version="1.1" viewBox="0 0 22 22" xmlns="http://www.w3.org/2000/svg">
<defs>
<style id="current-color-scheme" type="text/css">.ColorScheme-Text {
        color:#363636
      }</style>
</defs>
<path class="ColorScheme-Text" d="m3.5674 4.2c-0.31477 0-0.56743 0.26944-0.56743 0.60313v11.594c0 0.33368 0.25266 0.60312 0.56743 0.60312h14.865c0.31477 0 0.56743-0.26944 0.56743-0.60312v-11.594c0-0.33368-0.25266-0.60313-0.56743-0.60313h-14.865zm6.0796 3.2c0.13693 0 0.27277 0.055208 0.3773 0.16563l2.7104 2.5984c0.11292 0.11961 0.1626 0.27957 0.15328 0.43594 0.0093 0.15664-0.04032 0.31632-0.15328 0.43594l-2.7104 2.5984c-0.20906 0.22111-0.54701 0.22111-0.75608 0-0.20907-0.22111-0.20907-0.57889 0-0.8l2.3287-2.2344-2.3287-2.2344c-0.20907-0.22111-0.20907-0.57915 0-0.8 0.10453-0.11042 0.24185-0.16563 0.37878-0.16563z" color="#363636" fill="#363636"/>
</svg>
